X:42
T:And Thou Wert Mine Only Dear THO1.042
M:6/8
L:1/8
Z:vmp. Peter Dunk 2012.from a transcription by Fynn Titford-Mock 2006
B:Thompson's Compleat Collection of 200 Favourite Country Dances Vol.I,1758
Q:3/8=100
K:C
ge/f/g ceg|a3g3|fef dgf|egB c3|ge/f/g ceg|\
a3g2 (a/b//c'//)|bag Ta3|g3-g3:|
|:ge/f/g ceg|ag/f/e f3|fd/e/f Bdf|gf/e/d e2 g|\
a2 f g2e|f2 d e2 a|gfe d3 &x3G3|Tc3c3 &E3E3:|

